X: 142104
T: The COLOSSEUM
Q: "Hornpipe."
R:  Hornpipe.
%R: hornpipe
B: James Kerr "Merry Melodies" v.1 p.42 s.1 #4
Z: 2016 John Chambers <jc:trillian.mit.edu>
M: C
L: 1/8
K: A
uE2 |\
A2A2 A>cB>d | c2c2 c>ed>f |\
e>ag>f e>dc>B | A>ce>c f>dB>G |\
A2A2 A>cB>d | c2c2 c>ed>f |\
e>ag>f e>dc>B | A2a2A2 |]
e2 |\
c>eA>e c>eA>e | d>fB>f d>fB>f |\
c>eA>e c>eA>e | B>AG>F E2e2 |\
c>eA>e c>eA>e | d>fB>f d>fB>f |\
e>ag>f e>dc>B | A2a2A2 H|]

%%sep 1 1 500
%%sep 1 1 500

